X: 8736
T: Crying Daughter, The
R: reel
M: 4/4
K: Eminor
|:EFGE FGAF|G2Bc BAGF|EFGE FGAF|BcBA FEDB,|
EFGE FGAF|G2Bc BAGF|E2BE dEBE|AGFG _B4:|
|:B2eB aBgB|fgfe dBA^A|B2eB aBgB|fedB A4|
B2eB aBgB|fgfe dBAF|E2BE dEBE|AGFG _B4:|

